!!!COM: Music21
!!!OTL: Valse de Cecebre
!!!OMV: pezas_valses_valse-de-cecebre_valse-de-cecebre-partitura.musicxml
**kern
*I"Bagpipes
*I'Bag
*clefG^2
*k[b-e-a-d-]
*A-:
*M3/4
=1
!LO:TX:a:t=Presto
*MM184
!LO:TX:a:t=[quarter]=184
4r
8bnL
8ccJ
8bL
8ccJ
=||
2dd-
[4cc
=
4cc]
4bn
4cc
=
[2.ff
=
4ff]
8aa-L
8ggJ
8aa-L
8bb-J
=
8aa-L
8ggJ
8ffL
8ggJ
8ffL
8ee-J
=
8ffL
8ee-J
8dd-L
8ffJ
8ee-L
8ccJ
=
4.bn
8dd-
[4cc
!!linebreak:original
=
4cc]
8bnL
8ccJ
8bL
8ccJ
!!linebreak:original
=
2dd-
[4cc
=
4cc]
4bn
4cc
=
4ff
4ff
4aa-
=
2cc
4aa-
=
2gg
[4ddn
=
4dd]
4.gg
16ffLL
16ggJJ
=
2ff
[4een
=
4ee]
8bnL
8ccJ
8bL
8ccJ
=||
2dd-
[4cc
=
4cc]
4bn
4cc
=
[2.ff
!!linebreak:original
=
4ff]
8aa-L
8ggJ
8aa-L
8bb-J
=
8aa-L
8ggJ
8ffL
8ggJ
8ffL
8ee-J
=
8ffL
8ee-J
8dd-L
8ffJ
8ee-L
8ccJ
=
4.bn
8dd-
[4cc
=
4cc]
8bnL
8ccJ
8bL
8ccJ
!!linebreak:original
=
2dd-
[4cc
=
4cc]
4bn
4cc
=
4ff
4ff
4aa-
=
4ccc
4.ff
8aa-
=
2gg
[4bb-
=
4bb-]
4een
4aa-
!!linebreak:original
=
12ggL
12aa-
12ggJ
[2ff
=
4ff]
4gg
4aa-
=||
*k[b-]
*F:
4aa
8ffL
8ggJ
8ffL
8eeJ
=
8ffL
8eeJ
8ee-XL
8eenJ
8ee-XL
8ddJ
=
8ee-XL
8ddJ
[2cc
=
4cc]
4gg
4aa-X
=
4aa
8ffL
8ggJ
8ffL
8eeJ
=
8ffL
8eeJ
8ee-XL
8eenJ
8ee-XL
8ccJ
!!linebreak:original
=
[2.dd
=
4dd]
4aa-X
4aan
=
4bb-
8ff#XL
8ggJ
8ffnL
8ffJ
=
8ff#XL
8ffnJ
8eeL
8ffJ
8eeL
8ee-XJ
=
8eeL
8ee-XJ
[2dd
=
4dd]
4aa-X
4aan
=
4bb-
8ff#XL
8ggJ
8ffnL
8ffJ
=
8eeL
8ddJ
8ccL
8eeJ
8ggL
8bb-J
=
[2.aa
!!linebreak:original
=
4aa]
4ff
4gg
=
4aa
8ffL
8ggJ
8ffL
8eeJ
=
8ffL
8eeJ
8ee-XL
8eenJ
8ee-XL
8ddJ
=
8ee-XL
8ddJ
[2cc
=
4cc]
4ff
4gg
=
4aa
8ggL
8ffJ
8eeL
8ddJ
=
8ccL
8ddJ
8eeL
8ffJ
8ggL
8aaJ
=
[2.bb-
=
4bb-]
4gg
4aa
!!linebreak:original
=
4.bb-
8aa
8bb-L
8cccJ
!!linebreak:original
=
4.ccc#X
8ccc#
8cccnL
8bb-J
=
4.aa
8gg
8aaL
8bb-J
=
4.ccc
8ccc
8bb-L
8aaJ
=
4.gg
8ff#X
8ggL
8aaJ
=
4.bb-
8bb-
8aaL
8ggJ
=
12ffL
12gg
12ffJ
12eeL
12ff
12eeJ
12ddL
12ee
12ddJ
=
8ccL
8ddJ
8eeL
8ffJ
8ggL
8aaJ
!!linebreak:original
=
8bb-L
8aaJ
8ggL
8aaJ
8bb-L
8cccJ
=
8ccc#XL
8cccnJ
8bb-L
8ccc#XJ
8cccnL
8bb-J
=
8aaL
8ggJ
8ffL
8ggJ
8aaL
8bb-J
=
8cccL
8bb-J
8aaL
8cccJ
8bb-L
8aaJ
=
8ggL
8ffJ
8eeL
8ffJ
8ggL
8aaJ
=
8bb-L
8aaJ
8ggL
8bb-J
8aaL
8ggJ
=
[2.ff
=
4ff]
4ee
4ff
!!linebreak:original
=||
4.gg
8ff
8eeL
8ddJ
=
8ccL
8ddJ
8eeL
8ffJ
12ggL
12aa
12bb-J
=
4.ccc
8bb-
8aaL
8ggJ
=
4ff#X
4dd
4ccc
=
8bb-L
8cccJ
8bb-L
8aaJ
8ggL
8ffJ
=
12eeL
12ff
12eeJ
4cc
4ee
=
4ff
8ggL
8ffJ
8eeL
8ccJ
=
12ddL
12ee
12ddJ
8ccL
8ddJ
8eeL
8ffJ
!!pagebreak:original
=
4.gg
8ff
8eeL
8ddJ
=
8ccL
8ddJ
8eeL
8ffJ
12ggL
12aa
12bb-J
=
4.ccc
8bb-
8aaL
8ggJ
=
4ff#X
4.dd
8ccc
=
8bb-L
8cccJ
8bb-L
8aaJ
8ggL
8ffJ
=
8eeL
8ggJ
8ffL
8eeJ
8ddL
8eeJ
=
[2.ff
=
4ff]
4ee
4ff
!!linebreak:original
=||
4.gg
8ff
8eeL
8ddJ
=
8ccL
8ddJ
8eeL
8ffJ
12ggL
12aa
12bb-J
=
4.ccc
8bb-
8aaL
8ggJ
=
4ff#X
4dd
4ccc
=
8bb-L
8cccJ
8bb-L
8aaJ
8ggL
8ffJ
=
12eeL
12ff
12eeJ
4cc
4ee
=
4ff
8ggL
8ffJ
8eeL
8ccJ
=
12ddL
12ee
12ddJ
8ccL
8ddJ
8eeL
8ffJ
!!linebreak:original
=
4.gg
8ff
8eeL
8ddJ
=
8ccL
8ddJ
8eeL
8ffJ
12ggL
12aa
12bb-J
=
4.aa
8ff#X
8aaL
8bb-J
!!linebreak:original
=
4ccc
8bb-L
8aaJ
8bb-L
8cccJ
=
8ddL
8eeJ
8ffL
8ee-XJ
8eenL
8ggJ
=
8bb-L
8aaJ
8ggL
8ffJ
8eeL
8ggJ
=
2.ff
=
*k[b-e-a-d-]
*A-:
4r
8bnL
8ccJ
8bL
8ccJ
=||
2dd-
[4cc
=
4cc]
4bn
4cc
=
[2.ff
=
8ff]
8r
2r
==
*-
